T: One Bottle More
M: 4/4
L: 1/8
K: Dmaj
D2 FA D2 FA | dfed dcBA | dfdf dfed | cABc d2 :|e2 cA e2 cA | gfed cBAG | FGAB Afed | cABc d2 :|]
